icons/fresco-filled.svg

<svg width="256" height="256" viewBox="0 0 256 256" fill="none" xmlns="http://www.w3.org/2000/svg">
<path d="M196 0H60C26.8629 0 0 26.8629 0 60V196C0 229.137 26.8629 256 60 256H196C229.137 256 256 229.137 256 196V60C256 26.8629 229.137 0 196 0Z" fill="#001E36"/>
<path d="M87.2918 140.911V180.311C87.3157 180.462 87.3085 180.617 87.2706 180.766C87.2327 180.915 87.1648 181.054 87.0713 181.176C86.9777 181.297 86.8603 181.399 86.7263 181.473C86.5923 181.548 86.4445 181.595 86.2918 181.611H66.1918C66.0111 181.646 65.8241 181.631 65.6516 181.567C65.479 181.502 65.3274 181.392 65.2137 181.247C65.0999 181.102 65.0283 180.929 65.0068 180.746C64.9853 180.563 65.0147 180.378 65.0918 180.211V77.3107C65.0918 75.8107 65.4918 75.0107 66.1918 75.0107H129.992C130.37 74.9714 130.752 75.0408 131.092 75.2107C131.445 75.8889 131.617 76.6466 131.592 77.4107L133.392 94.9107C133.433 95.0657 133.437 95.2285 133.402 95.3851C133.367 95.5418 133.295 95.6877 133.192 95.8107C132.923 96.0693 132.565 96.2128 132.192 96.2107H87.2918V120.711H127.492C128.492 120.711 128.892 121.111 128.892 121.811V139.511C128.916 139.662 128.908 139.817 128.871 139.966C128.833 140.115 128.765 140.254 128.671 140.376C128.578 140.497 128.46 140.599 128.326 140.673C128.192 140.748 128.044 140.795 127.892 140.811H127.592L87.2918 140.911Z" fill="#31A8FF"/>
<path d="M143.092 101.611H160.592C161.066 101.622 161.524 101.783 161.901 102.07C162.278 102.358 162.555 102.757 162.692 103.211C163.105 103.918 163.377 104.699 163.492 105.511C163.692 106.511 163.892 107.611 163.992 108.611C164.092 109.611 164.192 110.911 164.192 112.211C167.195 108.705 170.823 105.789 174.892 103.611C179.461 101.134 184.597 99.8932 189.792 100.011C189.956 99.9883 190.124 99.9993 190.284 100.043C190.444 100.086 190.594 100.162 190.725 100.264C190.855 100.367 190.964 100.495 191.044 100.64C191.124 100.785 191.175 100.945 191.192 101.111V121.011C191.192 121.811 190.692 122.111 189.592 122.111C183.111 121.723 176.631 122.888 170.692 125.511C168.666 126.377 166.831 127.635 165.292 129.211V180.211C165.292 181.211 164.892 181.611 163.992 181.611H144.592C144.407 181.642 144.219 181.635 144.037 181.591C143.855 181.547 143.684 181.466 143.535 181.354C143.385 181.242 143.26 181.1 143.166 180.938C143.073 180.776 143.014 180.596 142.992 180.411V124.611C142.992 122.211 142.992 119.711 142.892 117.111C142.792 114.511 142.792 111.911 142.692 109.311C142.592 107.111 142.392 104.911 142.092 102.711C142.065 102.592 142.062 102.47 142.083 102.351C142.104 102.231 142.148 102.117 142.213 102.015C142.278 101.913 142.363 101.825 142.462 101.755C142.562 101.686 142.674 101.637 142.792 101.611C142.792 101.511 142.992 101.511 143.092 101.611Z" fill="#31A8FF"/>
</svg>

<svg xmlns="http://www.w3.org/2000/svg" width="256" height="256" fill="none"><path fill="#001E36" d="M196 0H60C26.863 0 0 26.863 0 60v136c0 33.137 26.863 60 60 60h136c33.137 0 60-26.863 60-60V60c0-33.137-26.863-60-60-60"/><path fill="#31A8FF" d="M87.292 140.911v39.4a1.13 1.13 0 0 1-1 1.3h-20.1a1 1 0 0 1-.978-.364 1 1 0 0 1-.122-1.036v-102.9c0-1.5.4-2.3 1.1-2.3h63.8a2 2 0 0 1 1.1.2 4.45 4.45 0 0 1 .5 2.2l1.8 17.5a1 1 0 0 1-.2.9 1.43 1.43 0 0 1-1 .4h-44.9v24.5h40.2c1 0 1.4.4 1.4 1.1v17.7a1.127 1.127 0 0 1-1 1.3h-.3zm55.8-39.3h17.5a2.25 2.25 0 0 1 2.1 1.6c.413.707.685 1.488.8 2.3.2 1 .4 2.1.5 3.1s.2 2.3.2 3.6a37.2 37.2 0 0 1 10.7-8.6 29.84 29.84 0 0 1 14.9-3.6 1.23 1.23 0 0 1 .933.253 1.25 1.25 0 0 1 .467.847v19.9c0 .8-.5 1.1-1.6 1.1a40.75 40.75 0 0 0-18.9 3.4 16.8 16.8 0 0 0-5.4 3.7v51c0 1-.4 1.4-1.3 1.4h-19.4a1.38 1.38 0 0 1-1.426-.673 1.4 1.4 0 0 1-.174-.527v-55.8c0-2.4 0-4.9-.1-7.5s-.1-5.2-.2-7.8q-.15-3.3-.6-6.6a.9.9 0 0 1 .121-.696.9.9 0 0 1 .249-.26.9.9 0 0 1 .33-.144c0-.1.2-.1.3 0"/></svg>
